Newaita-dark/apps/24/libreoffice-base.svg

<svg height="24" viewBox="0 0 24 24" width="24" xmlns="http://www.w3.org/2000/svg" xmlns:xlink="http://www.w3.org/1999/xlink"><linearGradient id="a" gradientTransform="matrix(.0558089 0 0 .0468795 -1.972752 10.079089)" gradientUnits="userSpaceOnUse" x1="254" x2="254" y1="233.5" y2="254.666672"><stop offset="0" stop-opacity=".27451"/><stop offset="1" stop-opacity="0"/></linearGradient><linearGradient id="b"><stop offset="0" stop-opacity=".313726"/><stop offset=".222222" stop-opacity=".27451"/><stop offset="1" stop-opacity="0"/></linearGradient><radialGradient id="c" cx="450.908936" cy="189.579361" gradientTransform="matrix(.00000013 -.0585994 -.105479 -.00000008 37.857636 47.696499)" gradientUnits="userSpaceOnUse" r="21.166656" xlink:href="#b"/><radialGradient id="d" cx="450.908936" cy="189.579361" gradientTransform="matrix(-.00000013 .0585994 .105479 .00000008 -14.042861 -5.645609)" gradientUnits="userSpaceOnUse" r="21.166656" xlink:href="#b"/><radialGradient id="e" cx="450.908936" cy="189.579361" gradientTransform="matrix(-.00000013 -.0585994 .105479 -.00000008 -14.042861 47.696499)" gradientUnits="userSpaceOnUse" r="21.166656" xlink:href="#b"/><radialGradient id="f" cx="450.908936" cy="189.579361" gradientTransform="matrix(.00000013 .0585994 -.105479 .00000008 37.857635 -5.64561)" gradientUnits="userSpaceOnUse" r="21.166656" xlink:href="#b"/><linearGradient id="g"><stop offset="0" stop-color="#ec407a"/><stop offset="1" stop-color="#f06292"/></linearGradient><linearGradient id="h" gradientUnits="userSpaceOnUse" x1="11.90736" x2="11.90736" xlink:href="#g" y1="21.02539814717" y2="2.17207757661"/><linearGradient id="i" gradientUnits="userSpaceOnUse" x1="11.90736" x2="11.90736" y1="20.03311814717" y2="3.16435757661"><stop offset="0" stop-color="#e0e0e0"/><stop offset="1" stop-color="#eee"/></linearGradient><linearGradient id="j" gradientUnits="userSpaceOnUse" x1="11.907361" x2="11.907361" xlink:href="#g" y1="14.82365914717" y2="7.87769839056"/><path d="m5.707031 21.027344h12.402344v.992187h-12.402344zm0 0" fill="url(#a)"/><path d="m18.109375 21.027344h1.984375v-.996094h-1.984375zm0 0" fill="url(#c)"/><path d="m5.707031 21.027344h-1.984375v.992187h1.984375zm0 0" fill="url(#d)"/><path d="m5.707031 21.027344h-1.984375v-.996094h1.984375zm0 0" fill="url(#e)"/><path d="m18.109375 21.027344h1.984375v.992187h-1.984375zm0 0" fill="url(#f)"/><path d="m4.960938 2.171875c-.550782 0-.992188.441406-.992188.992187v16.867188c0 .550781.441406.996094.992188.996094h13.890624c.550782 0 .992188-.445313.992188-.996094v-11.289062l-6.566406-6.570313zm10.417968 0 4.464844 4.464844v-3.472657c0-.550781-.441406-.992187-.992188-.992187zm0 0" fill="url(#h)"/><path d="m5.457031 3.164062c-.273437 0-.496093.222657-.496093.496094v15.875c0 .277344.222656.496094.496093.496094h12.898438c.277343 0 .496093-.21875.496093-.496094v-10.417968l-5.953124-5.953126zm0 0" fill="url(#i)"/><path d="m4.960938 2.171875c-.550782 0-.992188.441406-.992188.992187v.25c0-.550781.441406-.992187.992188-.992187h8.316406l6.566406 6.570313v-.25l-6.566406-6.570313zm10.417968 0 .25.25h3.222656c.550782 0 .992188.441406.992188.992187v-.25c0-.550781-.441406-.992187-.992188-.992187zm0 0" fill="#fff" fill-opacity=".392157"/><path d="m5.457031 3.164062c-.273437 0-.496093.222657-.496093.496094v.371094c0-.273438.222656-.496094.496093-.496094h7.441407l5.953124 5.953125v-.371093l-5.953124-5.953126zm0 0" fill-opacity=".235294"/><path d="m4.960938 19.554688v.234374c0 .273438.222656.496094.496093.496094h12.898438c.277343 0 .496093-.222656.496093-.496094v-.234374c0 .273437-.21875.496093-.496093.496093h-12.898438c-.273437 0-.496093-.222656-.496093-.496093zm0 0" fill="#fff" fill-opacity=".392157"/><path d="m439.958009 255.093763c-22.04514 0-39.996182 17.951043-39.996182 39.996183v1279.877845c0 22.360071 17.951042 39.996183 39.996182 39.996183h1039.900749c22.360071 0 39.996183-17.636112 39.996183-39.996183v-839.919836l-479.954192-479.954192zm0 0" fill="none" stroke="#212121" stroke-linecap="round" stroke-linejoin="round" stroke-width="11.338583" transform="scale(.0124035)"/><path d="m15.378906 2.171875 4.464844 4.464844v-.242188l-4.222656-4.222656zm-11.410156 17.621094v.238281c0 .550781.441406.996094.992188.996094h13.890624c.550782 0 .992188-.445313.992188-.996094v-.238281c0 .546875-.441406.992187-.992188.992187h-13.890624c-.550782 0-.992188-.445312-.992188-.992187zm0 0" fill-opacity=".235294"/><path d="m399.961827 175.101398c-44.405211 0-79.992366 35.587155-79.992366 79.992365v1359.870211c0 44.40521 35.587155 80.307296 79.992366 80.307296h1119.893114c44.405211 0 79.992365-35.902086 79.992365-80.307296v-910.149354l-529.398291-529.713222zm839.919835 0 359.965644 359.965644v-279.973279c0-44.40521-35.587154-79.992365-79.992365-79.992365zm0 0" fill="none" stroke="#212121" stroke-linecap="round" stroke-linejoin="round" stroke-width="11.338583" transform="scale(.0124035)"/><path d="m11.90625 7.878906c-1.785156 0-3.222656.664063-3.222656 1.488282 0 .824218 1.4375 1.488281 3.222656 1.488281 1.789062 0 3.226562-.664063 3.226562-1.488281 0-.824219-1.4375-1.488282-3.226562-1.488282zm-2.792969 2.976563c-.273437.21875-.429687.472656-.429687.742187 0 .824219 1.4375 1.488282 3.222656 1.488282 1.789062 0 3.226562-.664063 3.226562-1.488282 0-.269531-.15625-.523437-.429687-.742187-.554687.445312-1.597656.742187-2.796875.742187-1.195312 0-2.238281-.296875-2.792969-.742187zm0 2.230469c-.273437.21875-.429687.472656-.429687.746093 0 .824219 1.4375 1.488281 3.222656 1.488281 1.789062 0 3.226562-.664062 3.226562-1.488281 0-.273437-.15625-.527343-.429687-.746093-.554687.445312-1.597656.746093-2.796875.746093-1.195312 0-2.238281-.300781-2.792969-.746093zm0 0" fill="url(#j)"/><path d="m11.90625 7.878906c-1.785156 0-3.222656.664063-3.222656 1.488282 0 .039062.003906.082031.011718.121093.132813-.765625 1.515626-1.363281 3.210938-1.363281s3.078125.597656 3.214844 1.363281c.007812-.039062.011718-.082031.011718-.121093 0-.824219-1.4375-1.488282-3.226562-1.488282zm-2.792969 2.976563c-.273437.21875-.429687.472656-.429687.742187 0 .042969.003906.082032.011718.125.039063-.226562.183594-.433594.417969-.621094.554688.445313 1.597657.746094 2.792969.746094 1.199219 0 2.242188-.300781 2.796875-.746094.230469.1875.378906.394532.417969.621094.007812-.042968.011718-.082031.011718-.125 0-.269531-.15625-.523437-.429687-.742187-.554687.445312-1.597656.742187-2.796875.742187-1.195312 0-2.238281-.296875-2.792969-.742187zm0 2.230469c-.273437.21875-.429687.472656-.429687.746093 0 .039063.003906.082031.011718.121094.039063-.222656.183594-.433594.417969-.617187.554688.445312 1.597657.742187 2.792969.742187 1.199219 0 2.242188-.296875 2.796875-.742187.230469.183593.378906.394531.417969.617187.007812-.039063.011718-.082031.011718-.121094 0-.273437-.15625-.527343-.429687-.746093-.554687.445312-1.597656.746093-2.796875.746093-1.195312 0-2.238281-.300781-2.792969-.746093zm0 0" fill="#fff" fill-opacity=".392157"/><path d="m8.707031 9.550781c-.015625.0625-.023437.125-.023437.1875 0 .824219 1.4375 1.488281 3.222656 1.488281 1.789062 0 3.226562-.664062 3.226562-1.488281 0-.0625-.007812-.125-.023437-.1875-.199219.738281-1.550781 1.304688-3.203125 1.304688-1.648438 0-3-.566407-3.199219-1.304688zm0 2.234375c-.015625.0625-.023437.121094-.023437.1875 0 .824219 1.4375 1.488282 3.222656 1.488282 1.789062 0 3.226562-.664063 3.226562-1.488282 0-.066406-.007812-.125-.023437-.1875-.199219.734375-1.550781 1.300782-3.203125 1.300782-1.648438 0-3-.566407-3.199219-1.300782zm0 2.230469c-.015625.0625-.023437.125-.023437.1875 0 .824219 1.4375 1.488281 3.222656 1.488281 1.789062 0 3.226562-.664062 3.226562-1.488281 0-.0625-.007812-.125-.023437-.1875-.199219.738281-1.550781 1.304687-3.203125 1.304687-1.648438 0-3-.566406-3.199219-1.304687zm0 0" fill-opacity=".235294"/><path d="m253.975747-46.932716c-38.079697 0-68.743436 14.165314-68.743436 31.746968 0 17.581654 30.663739 31.746968 68.743436 31.746968 38.163022 0 68.82676-14.165314 68.82676-31.746968s-30.663738-31.746968-68.82676-31.746968zm-59.577644 63.493936c-5.832777 4.666221-9.165792 10.082371-9.165792 15.831822 0 17.581654 30.663739 31.746968 68.743436 31.746968 38.163022 0 68.82676-14.165314 68.82676-31.746968 0-5.749451-3.333015-11.165601-9.165791-15.831822-11.832204 9.499093-34.080079 15.831822-59.660969 15.831822-25.497566 0-47.745441-6.332729-59.577644-15.831822zm0 47.57879c-5.832777 4.666221-9.165792 10.082371-9.165792 15.915147 0 17.581654 30.663739 31.746968 68.743436 31.746968 38.163022 0 68.82676-14.165314 68.82676-31.746968 0-5.832776-3.333015-11.248926-9.165791-15.915147-11.832204 9.499093-34.080079 15.915147-59.660969 15.915147-25.497566 0-47.745441-6.416054-59.577644-15.915147zm0 0" fill="none" stroke="#212121" stroke-linecap="round" stroke-linejoin="round" stroke-width="3" transform="matrix(.0468795 0 0 .0468795 0 10.079087)"/></svg>

<?xml version="1.0" encoding="UTF-8"?>
<svg xmlns="http://www.w3.org/2000/svg" xmlns:xlink="http://www.w3.org/1999/xlink" width="24px" height="24px" viewBox="0 0 24 24" version="1.1">
<defs>
<linearGradient id="linear0" gradientUnits="userSpaceOnUse" x1="254" y1="233.5" x2="254" y2="254.666672" gradientTransform="matrix(0.0558089,0,0,0.0468795,-1.972752,10.079089)">
<stop offset="0" style="stop-color:rgb(0%,0%,0%);stop-opacity:0.27451;"/>
<stop offset="1" style="stop-color:rgb(0%,0%,0%);stop-opacity:0;"/>
</linearGradient>
<radialGradient id="radial0" gradientUnits="userSpaceOnUse" cx="450.908936" cy="189.579361" fx="450.908936" fy="189.579361" r="21.166656" gradientTransform="matrix(0.000000130628,-0.0585994,-0.105479,-0.0000000761539,37.857636,47.696499)">
<stop offset="0" style="stop-color:rgb(0%,0%,0%);stop-opacity:0.313726;"/>
<stop offset="0.222222" style="stop-color:rgb(0%,0%,0%);stop-opacity:0.27451;"/>
<stop offset="1" style="stop-color:rgb(0%,0%,0%);stop-opacity:0;"/>
</radialGradient>
<radialGradient id="radial1" gradientUnits="userSpaceOnUse" cx="450.908936" cy="189.579361" fx="450.908936" fy="189.579361" r="21.166656" gradientTransform="matrix(-0.000000130628,0.0585994,0.105479,0.0000000761539,-14.042861,-5.645609)">
<stop offset="0" style="stop-color:rgb(0%,0%,0%);stop-opacity:0.313726;"/>
<stop offset="0.222222" style="stop-color:rgb(0%,0%,0%);stop-opacity:0.27451;"/>
<stop offset="1" style="stop-color:rgb(0%,0%,0%);stop-opacity:0;"/>
</radialGradient>
<radialGradient id="radial2" gradientUnits="userSpaceOnUse" cx="450.908936" cy="189.579361" fx="450.908936" fy="189.579361" r="21.166656" gradientTransform="matrix(-0.000000130628,-0.0585994,0.105479,-0.0000000761539,-14.042861,47.696499)">
<stop offset="0" style="stop-color:rgb(0%,0%,0%);stop-opacity:0.313726;"/>
<stop offset="0.222222" style="stop-color:rgb(0%,0%,0%);stop-opacity:0.27451;"/>
<stop offset="1" style="stop-color:rgb(0%,0%,0%);stop-opacity:0;"/>
</radialGradient>
<radialGradient id="radial3" gradientUnits="userSpaceOnUse" cx="450.908936" cy="189.579361" fx="450.908936" fy="189.579361" r="21.166656" gradientTransform="matrix(0.000000130628,0.0585994,-0.105479,0.0000000761539,37.857635,-5.64561)">
<stop offset="0" style="stop-color:rgb(0%,0%,0%);stop-opacity:0.313726;"/>
<stop offset="0.222222" style="stop-color:rgb(0%,0%,0%);stop-opacity:0.27451;"/>
<stop offset="1" style="stop-color:rgb(0%,0%,0%);stop-opacity:0;"/>
</radialGradient>
<linearGradient id="linear1" gradientUnits="userSpaceOnUse" x1="254" y1="233.5" x2="254" y2="-168.666672" gradientTransform="matrix(0.0468795,0,0,0.0468795,0,10.079087)">
<stop offset="0" style="stop-color:rgb(87.843138%,87.843138%,87.843138%);stop-opacity:1;"/>
<stop offset="1" style="stop-color:rgb(93.333334%,93.333334%,93.333334%);stop-opacity:1;"/>
</linearGradient>
<linearGradient id="linear2" gradientUnits="userSpaceOnUse" x1="413.712219" y1="-474.701691" x2="413.712219" y2="-72.535034" gradientTransform="matrix(0.0468795,0,0,0.0468795,0,10.079087)">
<stop offset="0" style="stop-color:rgb(92.54902%,25.098041%,47.843137%);stop-opacity:1;"/>
<stop offset="1" style="stop-color:rgb(94.117647%,38.431373%,57.254905%);stop-opacity:1;"/>
</linearGradient>
<linearGradient id="linear3" gradientUnits="userSpaceOnUse" x1="940" y1="1215.118164" x2="940" y2="655.118103" gradientTransform="matrix(0.0124035,0,0,0.0124035,0.248071,-0.24807)">
<stop offset="0" style="stop-color:rgb(92.54902%,25.098041%,47.843137%);stop-opacity:1;"/>
<stop offset="1" style="stop-color:rgb(94.117647%,38.431373%,57.254905%);stop-opacity:1;"/>
</linearGradient>
</defs>
<g id="surface1">
<path style=" stroke:none;fill-rule:nonzero;fill:url(#linear0);" d="M 5.707031 21.027344 L 18.109375 21.027344 L 18.109375 22.019531 L 5.707031 22.019531 Z M 5.707031 21.027344 "/>
<path style=" stroke:none;fill-rule:nonzero;fill:url(#radial0);" d="M 18.109375 21.027344 L 20.09375 21.027344 L 20.09375 20.03125 L 18.109375 20.03125 Z M 18.109375 21.027344 "/>
<path style=" stroke:none;fill-rule:nonzero;fill:url(#radial1);" d="M 5.707031 21.027344 L 3.722656 21.027344 L 3.722656 22.019531 L 5.707031 22.019531 Z M 5.707031 21.027344 "/>
<path style=" stroke:none;fill-rule:nonzero;fill:url(#radial2);" d="M 5.707031 21.027344 L 3.722656 21.027344 L 3.722656 20.03125 L 5.707031 20.03125 Z M 5.707031 21.027344 "/>
<path style=" stroke:none;fill-rule:nonzero;fill:url(#radial3);" d="M 18.109375 21.027344 L 20.09375 21.027344 L 20.09375 22.019531 L 18.109375 22.019531 Z M 18.109375 21.027344 "/>
<path style=" stroke:none;fill-rule:nonzero;fill:url(#linear1);" d="M 14.929688 2.171875 L 4.960938 2.171875 C 4.410156 2.171875 3.96875 2.613281 3.96875 3.164062 L 3.96875 20.03125 C 3.96875 20.582031 4.410156 21.027344 4.960938 21.027344 L 18.851562 21.027344 C 19.402344 21.027344 19.84375 20.582031 19.84375 20.03125 L 19.84375 6.679688 Z M 14.929688 2.171875 "/>
<path style=" stroke:none;fill-rule:nonzero;fill:url(#linear2);" d="M 14.929688 2.171875 L 19.84375 6.679688 L 19.84375 3.164062 C 19.84375 2.613281 19.402344 2.171875 18.851562 2.171875 Z M 14.929688 2.171875 "/>
<path style=" stroke:none;fill-rule:nonzero;fill:rgb(0%,0%,0%);fill-opacity:0.235294;" d="M 3.96875 19.785156 L 3.96875 20.03125 C 3.96875 20.582031 4.410156 21.027344 4.960938 21.027344 L 18.851562 21.027344 C 19.402344 21.027344 19.84375 20.582031 19.84375 20.03125 L 19.84375 19.785156 C 19.84375 20.335938 19.402344 20.777344 18.851562 20.777344 L 4.960938 20.777344 C 4.410156 20.777344 3.96875 20.335938 3.96875 19.785156 Z M 3.96875 19.785156 "/>
<path style=" stroke:none;fill-rule:nonzero;fill:rgb(100%,100%,100%);fill-opacity:1;" d="M 4.960938 2.171875 C 4.410156 2.171875 3.96875 2.613281 3.96875 3.164062 L 3.96875 3.660156 C 3.96875 3.109375 4.410156 2.667969 4.960938 2.667969 L 14.929688 2.667969 L 19.84375 7.175781 L 19.84375 6.679688 L 14.929688 2.171875 Z M 4.960938 2.171875 "/>
<path style=" stroke:none;fill-rule:nonzero;fill:rgb(100%,100%,100%);fill-opacity:0.392157;" d="M 14.929688 2.171875 L 15.46875 2.667969 L 18.851562 2.667969 C 19.402344 2.667969 19.84375 3.109375 19.84375 3.660156 L 19.84375 3.164062 C 19.84375 2.613281 19.402344 2.171875 18.851562 2.171875 Z M 14.929688 2.171875 "/>
<path style=" stroke:none;fill-rule:nonzero;fill:rgb(0%,0%,0%);fill-opacity:0.235294;" d="M 14.929688 2.171875 L 19.84375 6.679688 L 19.84375 6.265625 L 15.378906 2.171875 Z M 14.929688 2.171875 "/>
<path style="fill:none;stroke-width:11.338583;stroke-linecap:round;stroke-linejoin:round;stroke:rgb(12.941177%,12.941177%,12.941177%);stroke-opacity:1;stroke-miterlimit:4;" d="M 1203.664647 175.101398 L 399.961827 175.101398 C 355.556616 175.101398 319.969461 210.688553 319.969461 255.093763 L 319.969461 1614.963974 C 319.969461 1659.369184 355.556616 1695.27127 399.961827 1695.27127 L 1519.854941 1695.27127 C 1564.260152 1695.27127 1599.847306 1659.369184 1599.847306 1614.963974 L 1599.847306 538.531278 Z M 1203.664647 175.101398 " transform="matrix(0.0124035,0,0,0.0124035,0,0)"/>
<path style="fill:none;stroke-width:3;stroke-linecap:round;stroke-linejoin:round;stroke:rgb(12.941177%,12.941177%,12.941177%);stroke-opacity:1;stroke-miterlimit:4;" d="M 318.469588 -168.671091 L 423.292911 -72.513607 L 423.292911 -147.506445 C 423.292911 -159.255323 413.877143 -168.671091 402.128265 -168.671091 Z M 318.469588 -168.671091 " transform="matrix(0.0468795,0,0,0.0468795,0,10.079087)"/>
<path style=" stroke:none;fill-rule:nonzero;fill:url(#linear3);" d="M 11.90625 7.878906 C 10.121094 7.878906 8.683594 8.542969 8.683594 9.367188 C 8.683594 10.191406 10.121094 10.855469 11.90625 10.855469 C 13.695312 10.855469 15.132812 10.191406 15.132812 9.367188 C 15.132812 8.542969 13.695312 7.878906 11.90625 7.878906 Z M 9.113281 10.855469 C 8.839844 11.074219 8.683594 11.328125 8.683594 11.597656 C 8.683594 12.421875 10.121094 13.085938 11.90625 13.085938 C 13.695312 13.085938 15.132812 12.421875 15.132812 11.597656 C 15.132812 11.328125 14.976562 11.074219 14.703125 10.855469 C 14.148438 11.300781 13.105469 11.597656 11.90625 11.597656 C 10.710938 11.597656 9.667969 11.300781 9.113281 10.855469 Z M 9.113281 13.085938 C 8.839844 13.304688 8.683594 13.558594 8.683594 13.832031 C 8.683594 14.65625 10.121094 15.320312 11.90625 15.320312 C 13.695312 15.320312 15.132812 14.65625 15.132812 13.832031 C 15.132812 13.558594 14.976562 13.304688 14.703125 13.085938 C 14.148438 13.53125 13.105469 13.832031 11.90625 13.832031 C 10.710938 13.832031 9.667969 13.53125 9.113281 13.085938 Z M 9.113281 13.085938 "/>
<path style=" stroke:none;fill-rule:nonzero;fill:rgb(100%,100%,100%);fill-opacity:0.392157;" d="M 11.90625 7.878906 C 10.121094 7.878906 8.683594 8.542969 8.683594 9.367188 C 8.683594 9.40625 8.6875 9.449219 8.695312 9.488281 C 8.828125 8.722656 10.210938 8.125 11.90625 8.125 C 13.601562 8.125 14.984375 8.722656 15.121094 9.488281 C 15.128906 9.449219 15.132812 9.40625 15.132812 9.367188 C 15.132812 8.542969 13.695312 7.878906 11.90625 7.878906 Z M 9.113281 10.855469 C 8.839844 11.074219 8.683594 11.328125 8.683594 11.597656 C 8.683594 11.640625 8.6875 11.679688 8.695312 11.722656 C 8.734375 11.496094 8.878906 11.289062 9.113281 11.101562 C 9.667969 11.546875 10.710938 11.847656 11.90625 11.847656 C 13.105469 11.847656 14.148438 11.546875 14.703125 11.101562 C 14.933594 11.289062 15.082031 11.496094 15.121094 11.722656 C 15.128906 11.679688 15.132812 11.640625 15.132812 11.597656 C 15.132812 11.328125 14.976562 11.074219 14.703125 10.855469 C 14.148438 11.300781 13.105469 11.597656 11.90625 11.597656 C 10.710938 11.597656 9.667969 11.300781 9.113281 10.855469 Z M 9.113281 13.085938 C 8.839844 13.304688 8.683594 13.558594 8.683594 13.832031 C 8.683594 13.871094 8.6875 13.914062 8.695312 13.953125 C 8.734375 13.730469 8.878906 13.519531 9.113281 13.335938 C 9.667969 13.78125 10.710938 14.078125 11.90625 14.078125 C 13.105469 14.078125 14.148438 13.78125 14.703125 13.335938 C 14.933594 13.519531 15.082031 13.730469 15.121094 13.953125 C 15.128906 13.914062 15.132812 13.871094 15.132812 13.832031 C 15.132812 13.558594 14.976562 13.304688 14.703125 13.085938 C 14.148438 13.53125 13.105469 13.832031 11.90625 13.832031 C 10.710938 13.832031 9.667969 13.53125 9.113281 13.085938 Z M 9.113281 13.085938 "/>
<path style=" stroke:none;fill-rule:nonzero;fill:rgb(0%,0%,0%);fill-opacity:0.235294;" d="M 8.707031 9.550781 C 8.691406 9.613281 8.683594 9.675781 8.683594 9.738281 C 8.683594 10.5625 10.121094 11.226562 11.90625 11.226562 C 13.695312 11.226562 15.132812 10.5625 15.132812 9.738281 C 15.132812 9.675781 15.125 9.613281 15.109375 9.550781 C 14.910156 10.289062 13.558594 10.855469 11.90625 10.855469 C 10.257812 10.855469 8.90625 10.289062 8.707031 9.550781 Z M 8.707031 11.785156 C 8.691406 11.847656 8.683594 11.90625 8.683594 11.972656 C 8.683594 12.796875 10.121094 13.460938 11.90625 13.460938 C 13.695312 13.460938 15.132812 12.796875 15.132812 11.972656 C 15.132812 11.90625 15.125 11.847656 15.109375 11.785156 C 14.910156 12.519531 13.558594 13.085938 11.90625 13.085938 C 10.257812 13.085938 8.90625 12.519531 8.707031 11.785156 Z M 8.707031 14.015625 C 8.691406 14.078125 8.683594 14.140625 8.683594 14.203125 C 8.683594 15.027344 10.121094 15.691406 11.90625 15.691406 C 13.695312 15.691406 15.132812 15.027344 15.132812 14.203125 C 15.132812 14.140625 15.125 14.078125 15.109375 14.015625 C 14.910156 14.753906 13.558594 15.320312 11.90625 15.320312 C 10.257812 15.320312 8.90625 14.753906 8.707031 14.015625 Z M 8.707031 14.015625 "/>
<path style="fill:none;stroke-width:3;stroke-linecap:round;stroke-linejoin:round;stroke:rgb(12.941177%,12.941177%,12.941177%);stroke-opacity:1;stroke-miterlimit:4;" d="M 253.975747 -46.932716 C 215.89605 -46.932716 185.232311 -32.767402 185.232311 -15.185748 C 185.232311 2.395906 215.89605 16.56122 253.975747 16.56122 C 292.138769 16.56122 322.802507 2.395906 322.802507 -15.185748 C 322.802507 -32.767402 292.138769 -46.932716 253.975747 -46.932716 Z M 194.398103 16.56122 C 188.565326 21.227441 185.232311 26.643591 185.232311 32.393042 C 185.232311 49.974696 215.89605 64.14001 253.975747 64.14001 C 292.138769 64.14001 322.802507 49.974696 322.802507 32.393042 C 322.802507 26.643591 319.469492 21.227441 313.636716 16.56122 C 301.804512 26.060313 279.556637 32.393042 253.975747 32.393042 C 228.478181 32.393042 206.230306 26.060313 194.398103 16.56122 Z M 194.398103 64.14001 C 188.565326 68.806231 185.232311 74.222381 185.232311 80.055157 C 185.232311 97.636811 215.89605 111.802125 253.975747 111.802125 C 292.138769 111.802125 322.802507 97.636811 322.802507 80.055157 C 322.802507 74.222381 319.469492 68.806231 313.636716 64.14001 C 301.804512 73.639103 279.556637 80.055157 253.975747 80.055157 C 228.478181 80.055157 206.230306 73.639103 194.398103 64.14001 Z M 194.398103 64.14001 " transform="matrix(0.0468795,0,0,0.0468795,0,10.079087)"/>
</g>
</svg>
